packages/kaspersky-hexa-ui-icons/src/iconsSVGs/24/IsolateHost.svg

<svg width="24" height="24" viewBox="0 0 24 24" fill="none" xmlns="http://www.w3.org/2000/svg">
<path fill-rule="evenodd" clip-rule="evenodd" d="M7.99998 9.87385L2.86644 4.74031C2.47592 4.34979 2.47592 3.71662 2.86644 3.3261C3.25696 2.93557 3.89013 2.93557 4.28065 3.3261L21.2474 20.2929C21.638 20.6834 21.638 21.3166 21.2474 21.7071C20.8569 22.0976 20.2238 22.0976 19.8332 21.7071L13.1261 15H8.99999C8.4477 15 7.99999 14.5523 7.99999 14L7.99998 12C5.79085 12 3.99999 13.7909 4 16C4.00001 18.2091 5.79086 20 7.99998 20H14C14.5523 20 15 20.4477 15 21C15 21.5523 14.5523 22 14 22H7.99998C4.68629 22 2.00001 19.3137 2 16C1.99999 12.6863 4.68627 10 7.99998 10V9.87385ZM11.1261 13H9.99999V11.8739L11.1261 13Z" fill="black"/>
<path d="M21 13H16.55L18.55 15H22C22.5523 15 23 14.5523 23 14V10C23 9.44772 22.5523 9 22 9H20V8C20 6.89543 19.1046 6 18 6H16.4142L12.7071 2.29289C12.3166 1.90237 11.6834 1.90237 11.2929 2.29289C10.9024 2.68342 10.9024 3.31658 11.2929 3.70711L13.5858 6H9.55L11.55 8H18V10C18 10.5523 18.4477 11 19 11H21V13Z" fill="black"/>
</svg>

<svg xmlns="http://www.w3.org/2000/svg" width="24" height="24" fill="none" viewBox="0 0 24 24"><path fill="#000" fill-rule="evenodd" d="M8 9.8738 2.8664 4.7403c-.3905-.3905-.3905-1.0237 0-1.4142s1.0237-.3905 1.4142 0l16.9668 16.9668c.3906.3905.3906 1.0237 0 1.4142s-1.0236.3905-1.4142 0L13.1261 15H9c-.5523 0-1-.4477-1-1v-2c-2.2091 0-4 1.7909-4 4s1.7909 4 4 4h6c.5523 0 1 .4477 1 1s-.4477 1-1 1H8c-3.3137 0-6-2.6863-6-6s2.6863-6 6-6zM11.126 13H10v-1.1261z" clip-rule="evenodd"/><path fill="#000" d="M21 13h-4.45l2 2H22c.5523 0 1-.4477 1-1v-4c0-.5523-.4477-1-1-1h-2V8c0-1.1046-.8954-2-2-2h-1.5858l-3.7071-3.7071c-.3905-.3905-1.0237-.3905-1.4142 0s-.3905 1.0237 0 1.4142L13.5858 6H9.55l2 2H18v2c0 .5523.4477 1 1 1h2z"/></svg>
